X:1
T:Gloria (Smart), 87.87 D
T:Gloria (Smart), 87.87 D
T:Henry Thomas Smart, 1868
T:Public Domain Courtesy of the Cyber Hymnal™
C:Henry Thomas Smart, 1868
Z:Public Domain
Z:Courtesy of the Cyber Hymnal™
%%score ( 1 2 ) ( 3 4 )
L:1/8
Q:1/4=113
M:4/4
K:D
V:1 treble 
V:2 treble 
V:3 bass 
V:4 bass 
V:1
 [FA]2 [Ad]2 [Ec]2 [EB]2 | [FA]2 [FB]2 [EG]2 [EA]2 | [DF]2 [CG]2 [DA]2 [B,D]2 | G2 [DF]2 [CE]4 | %4
 A3 z E [DF]2 [DA]2 | [Fd]2 (cB) [Ee]2 [Ed]2 | [Ec]2 (BA) d2 [Ac]2 | B3 z B A4 | %8
 [CE]2 [DF]2 [DG]2 [DF]2 | B3 z c [EB]2 [FA]2 | [DB]2 [Gc]2 [Fd]2 (cd) | [Ee]2 [EB]2 c4 | %12
 d3 z e [Gc]2 [GB]2 | [FA]2 [FB]2 [EG]2 [EA]2 | [DF]2 [DA]2 [DG]2 [DF]2 | %15
 [DE]2 [CE]2 !fermata!D4 |] %16
V:2
 x8 | x8 | x8 | (B,C) x6 | E2 C2 x5 | x2 F2 x4 | x2 F2 (F^G) x2 | A2 (^G2 A4) x | x8 | D2 E2 x5 | %10
 x6 F2 | x4 E2 F2 | F2 G2 x5 | x8 | x8 | x4 D4 |] %16
V:3
 [D,D]2 [F,A,]2 A,2 (B,C) | [F,D]2 [D,D]2 [E,B,]2 [A,,C]2 | [D,A,]2 [E,A,]2 [F,A,]2 [G,B,]2 | %3
 [E,G,]2 [D,A,]2 [A,,A,]4 | [C,A,]2 [A,,A,]2 [D,A,]2 [F,A,]2 x | B,2 (CD) [^G,B,]2 [F,A,][G,B,] | %6
 [A,C]2 (DC) [B,,B,]2 [C,E]2 | [D,F]2 (ED) [A,,A,C]4 x | [A,,A,]2 [D,A,]2 [B,,B,]2 [D,A,]2 | %9
 [G,B,]2 [G,C]2 [G,C]2 [F,D]2 x | [G,B,]2 [E,E]2 [B,D]2 A,2 | [G,B,]2 [G,B,]2 [F,^A,]4 | %12
 [B,,B,]2 [B,D]2 [A,E]2 [E,C]2 x | [F,D]2 [B,,D]2 [E,B,]2 [A,,C]2 | %14
 [D,A,]2 [=C,F,]2 [B,,G,]2 [A,,A,]2 | [G,,B,]2 (A,G,) !fermata![D,F,]4 |] %16
V:4
 x4 A,2 G,2 | x8 | x8 | x8 | x9 | B,2 A,2 x4 | x2 F,2 x4 | x2 E,2 x5 | x8 | x9 | x6 A,2 | x8 | x9 | %13
 x8 | x8 | x2 A,,2 x4 |] %16

